icons/refresh-32.svg

<svg xmlns="http://www.w3.org/2000/svg" viewBox="0 0 32 32"><title>refresh-32</title><g id="icons"><path d="M16,4a11.9929,11.9929,0,0,1,10.37524,6H22v1h6V5H27V9.07257A12.99969,12.99969,0,0,0,3,16H4A12.01375,12.01375,0,0,1,16,4ZM27,9.99988Z"/><path d="M28,16A12.00122,12.00122,0,0,1,5.60577,22H10V21H4v6H5V22.92A12.99667,12.99667,0,0,0,29,16Z"/></g></svg>

<svg xmlns="http://www.w3.org/2000/svg" viewBox="0 0 32 32"><path d="M16 4a11.993 11.993 0 0110.375 6H22v1h6V5h-1v4.073A13 13 0 003 16h1A12.014 12.014 0 0116 4zm11 6zm1 6a12.001 12.001 0 01-22.394 6H10v-1H4v6h1v-4.08A12.997 12.997 0 0029 16z"/></svg>
